svg/u269b.svg

<svg viewBox="0 0 128 128" xmlns="http://www.w3.org/2000/svg">
  <g>
    <path d="M116.46,3.96h-104c-4.42,0-8,3.58-8,8v104c0,4.42,3.58,8,8,8h104c4.42,0,8-3.58,8-8v-104 C124.46,7.54,120.88,3.96,116.46,3.96z" fill="#8E24AA"/>
    <path d="M110.16,3.96h-98.2c-4.13,0.03-7.47,3.37-7.5,7.5v97.9c-0.01,4.14,3.34,7.49,7.48,7.5 c0.01,0,0.01,0,0.02,0h98.1c4.14,0.01,7.49-3.34,7.5-7.48c0-0.01,0-0.01,0-0.02v-97.9c0.09-4.05-3.13-7.41-7.18-7.5 C110.31,3.96,110.23,3.96,110.16,3.96z" fill="#AB47BC"/>
    <path d="M40.16,12.86c0-2.3-1.6-3-10.8-2.7c-7.7,0.3-11.5,1.2-13.8,4 s-2.9,8.5-3,15.3c0,4.8,0,9.3,2.5,9.3c3.4,0,3.4-7.9,6.2-12.3C26.66,17.76,40.16,15.86,40.16,12.86z" opacity="0.3" fill="#FAFAFA" enable-background="new "/>
    <circle cx="61.46" cy="63.96" r="6" fill="#FAFAFA"/>
    <path d="M103.06,39.96c-3.3-5.8-13.1-7-25.3-4.1c-3.7-12.1-9.6-19.9-16.3-19.9s-12.6,7.9-16.2,19.9 c-12.3-2.9-22-1.7-25.4,4.1s0.5,14.8,9.1,24c-8.6,9.2-12.5,18.2-9.1,24s13.1,7,25.3,4.1c3.7,12.1,9.6,19.9,16.3,19.9 s12.6-7.8,16.2-19.9c12.3,2.9,22,1.7,25.3-4.1s-0.5-14.8-9.1-24C102.56,54.76,106.36,45.76,103.06,39.96z M97.86,42.96 c1.4,2.4-0.8,8.6-7.5,16.1c-0.38,0.38-0.97,0.42-1.4,0.1c-2.43-2.16-4.97-4.2-7.6-6.1c-0.23-0.17-0.37-0.42-0.4-0.7 c-0.28-3.26-0.78-6.5-1.5-9.7c-0.12-0.54,0.22-1.07,0.76-1.19c0.01,0,0.03-0.01,0.04-0.01C89.96,39.36,96.46,40.56,97.86,42.96z M68.46,76.06c-2.14,1.28-4.34,2.45-6.6,3.5c-0.29,0.1-0.61,0.1-0.9,0c-2.1-1.1-4.3-2.2-6.6-3.5s-4.3-2.6-6.3-3.9 c-0.28-0.16-0.44-0.48-0.4-0.8c-0.1-2.3-0.2-4.8-0.2-7.4s0.1-5.1,0.2-7.4c0.03-0.31,0.17-0.59,0.4-0.8c2-1.3,4.1-2.6,6.3-3.9 c2.14-1.28,4.34-2.45,6.6-3.5c0.29-0.1,0.61-0.1,0.9,0c2.1,1,4.3,2.2,6.6,3.5s4.3,2.6,6.3,3.9c0.26,0.18,0.42,0.48,0.4,0.8 c0.2,2.4,0.2,4.8,0.2,7.4c0,2.6-0.1,5.1-0.2,7.4c-0.03,0.31-0.17,0.59-0.4,0.8C72.76,73.46,70.66,74.76,68.46,76.06z M74.36,79.56 c-0.3,1.8-0.6,3.5-0.9,5.1c-1.6-0.5-3.2-1.1-4.9-1.7c1-0.5,2-1.1,2.9-1.6S73.36,80.16,74.36,79.56z M54.36,82.86 c-1.7,0.7-3.3,1.2-4.9,1.7c-0.3-1.6-0.7-3.3-0.9-5.1c1,0.6,1.9,1.2,2.9,1.7S53.46,82.36,54.36,82.86z M41.46,67.36 c-1.4-1.1-2.7-2.2-4-3.4c1.2-1.1,2.5-2.2,4-3.4V67.36z M48.56,48.36c0.3-1.8,0.6-3.5,0.9-5.1c1.6,0.5,3.2,1.1,4.9,1.7 c-1,0.5-2,1.1-2.9,1.6S49.56,47.76,48.56,48.36z M68.56,45.06c1.7-0.7,3.3-1.2,4.9-1.7c0.3,1.6,0.7,3.3,0.9,5.1 c-0.93-0.63-1.9-1.19-2.9-1.7C70.46,46.26,69.46,45.56,68.56,45.06z M81.36,60.56c1.37,1.05,2.67,2.19,3.9,3.4 c-1.2,1.1-2.5,2.2-3.9,3.4c0-1.1,0.1-2.2,0.1-3.4S81.46,61.76,81.36,60.56z M61.46,21.96c2.8,0,7,5,10.1,14.6 c0.2,0.52-0.06,1.09-0.58,1.29c-0.01,0-0.02,0.01-0.02,0.01c-3,1-6,2.2-9.1,3.5c-0.26,0.1-0.54,0.1-0.8,0 c-2.96-1.35-6-2.52-9.1-3.5c-0.52-0.18-0.79-0.76-0.61-1.28c0-0.01,0.01-0.02,0.01-0.02C54.36,26.96,58.66,21.96,61.46,21.96z M25.06,42.96c1.4-2.4,7.9-3.6,17.7-1.5c0.54,0.1,0.91,0.62,0.81,1.16c0,0.01,0,0.03-0.01,0.04c-0.6,3-1.1,6.3-1.5,9.7 c-0.03,0.28-0.17,0.53-0.4,0.7c-2.65,1.88-5.19,3.92-7.6,6.1c-0.42,0.35-1.04,0.31-1.4-0.1C25.86,51.56,23.66,45.36,25.06,42.96z M25.06,84.96c-1.4-2.4,0.8-8.6,7.5-16.1c0.38-0.38,0.97-0.42,1.4-0.1c2.43,2.16,4.97,4.2,7.6,6.1c0.23,0.17,0.37,0.42,0.4,0.7 c0.28,3.26,0.78,6.5,1.5,9.7c0.12,0.54-0.22,1.07-0.76,1.19c-0.01,0-0.03,0.01-0.04,0.01C32.96,88.56,26.46,87.36,25.06,84.96z M61.46,105.96c-2.8,0-7-5-10.1-14.6c-0.2-0.52,0.06-1.09,0.58-1.29c0.01,0,0.02-0.01,0.02-0.01c3.09-1.04,6.13-2.24,9.1-3.6 c0.26-0.1,0.54-0.1,0.8,0c3.1,1.4,6.2,2.6,9.1,3.6c0.52,0.18,0.79,0.76,0.61,1.28c0,0.01-0.01,0.02-0.01,0.02 C68.46,100.96,64.26,105.96,61.46,105.96z M97.86,84.96c-1.4,2.4-7.9,3.6-17.7,1.5c-0.54-0.1-0.91-0.62-0.81-1.16 c0-0.01,0-0.03,0.01-0.04c0.6-3.1,1.1-6.3,1.5-9.7c0.03-0.28,0.17-0.53,0.4-0.7c2.65-1.88,5.19-3.92,7.6-6.1 c0.42-0.35,1.04-0.31,1.4,0.1C96.96,76.36,99.16,82.56,97.86,84.96z" fill="#FAFAFA"/>
  </g>
</svg>

<svg viewBox="0 0 128 128" xmlns="http://www.w3.org/2000/svg">
  <defs/>
  <path d="M116.46,3.96 L12.46,3.96 C8.04,3.96 4.46,7.54 4.46,11.96 L4.46,115.96 C4.46,120.38 8.04,123.96 12.46,123.96 L116.46,123.96 C120.88,123.96 124.46,120.38 124.46,115.96 L124.46,11.96 C124.46,7.54 120.88,3.96 116.46,3.96 Z" fill="#8E24AA"/>
  <path d="M110.16,3.96 L11.96,3.96 C7.83,3.99 4.49,7.33 4.46,11.46 L4.46,109.36 C4.45,113.5 7.8,116.85 11.94,116.86 C11.95,116.86 11.95,116.86 11.96,116.86 L110.06,116.86 C114.2,116.87 117.55,113.52 117.56,109.38 C117.56,109.37 117.56,109.37 117.56,109.36 L117.56,11.46 C117.65,7.41 114.43,4.05 110.38,3.96 C110.31,3.96 110.23,3.96 110.16,3.96 Z" fill="#AB47BC"/>
  <path d="M40.16,12.86 C40.16,10.56 38.56,9.86 29.36,10.16 C21.66,10.46 17.86,11.36 15.56,14.16 C13.26,16.96 12.66,22.66 12.56,29.46 C12.56,34.26 12.56,38.76 15.06,38.76 C18.46,38.76 18.46,30.86 21.26,26.46 C26.66,17.76 40.16,15.86 40.16,12.86 Z" fill="#FAFAFA" opacity="0.3"/>
  <path d="M67.46,63.96 A6 6 0 1 1 55.46,63.96 A6 6 0 1 1 67.46,63.96 Z" fill="#FAFAFA"/>
  <path d="M103.06,39.96 C99.76,34.16 89.96,32.96 77.76,35.86 C74.06,23.76 68.16,15.96 61.46,15.96 C54.76,15.96 48.86,23.86 45.26,35.86 C32.96,32.96 23.26,34.16 19.86,39.96 C16.46,45.76 20.36,54.76 28.96,63.96 C20.36,73.16 16.46,82.16 19.86,87.96 C23.26,93.76 32.96,94.96 45.16,92.06 C48.86,104.16 54.76,111.96 61.46,111.96 C68.16,111.96 74.06,104.16 77.66,92.06 C89.96,94.96 99.66,93.76 102.96,87.96 C106.26,82.16 102.46,73.16 93.86,63.96 C102.56,54.76 106.36,45.76 103.06,39.96 Z M97.86,42.96 C99.26,45.36 97.06,51.56 90.36,59.06 C89.98,59.44 89.39,59.48 88.96,59.16 C86.53,57 83.99,54.96 81.36,53.06 C81.13,52.89 80.99,52.64 80.96,52.36 C80.68,49.1 80.18,45.86 79.46,42.66 C79.34,42.12 79.68,41.59 80.22,41.47 C80.23,41.47 80.25,41.46 80.26,41.46 C89.96,39.36 96.46,40.56 97.86,42.96 Z M68.46,76.06 C66.32,77.34 64.12,78.51 61.86,79.56 C61.57,79.66 61.25,79.66 60.96,79.56 C58.86,78.46 56.66,77.36 54.36,76.06 C52.06,74.76 50.06,73.46 48.06,72.16 C47.78,72 47.62,71.68 47.66,71.36 C47.56,69.06 47.46,66.56 47.46,63.96 C47.46,61.36 47.56,58.86 47.66,56.56 C47.69,56.25 47.83,55.97 48.06,55.76 C50.06,54.46 52.16,53.16 54.36,51.86 C56.5,50.58 58.7,49.41 60.96,48.36 C61.25,48.26 61.57,48.26 61.86,48.36 C63.96,49.36 66.16,50.56 68.46,51.86 C70.76,53.16 72.76,54.46 74.76,55.76 C75.02,55.94 75.18,56.24 75.16,56.56 C75.36,58.96 75.36,61.36 75.36,63.96 C75.36,66.56 75.26,69.06 75.16,71.36 C75.13,71.67 74.99,71.95 74.76,72.16 C72.76,73.46 70.66,74.76 68.46,76.06 Z M74.36,79.56 C74.06,81.36 73.76,83.06 73.46,84.66 C71.86,84.16 70.26,83.56 68.56,82.96 C69.56,82.46 70.56,81.86 71.46,81.36 C72.36,80.86 73.36,80.16 74.36,79.56 Z M54.36,82.86 C52.66,83.56 51.06,84.06 49.46,84.56 C49.16,82.96 48.76,81.26 48.56,79.46 C49.56,80.06 50.46,80.66 51.46,81.16 C52.46,81.66 53.46,82.36 54.36,82.86 Z M41.46,67.36 C40.06,66.26 38.76,65.16 37.46,63.96 C38.66,62.86 39.96,61.76 41.46,60.56 L41.46,67.36 Z M48.56,48.36 C48.86,46.56 49.16,44.86 49.46,43.26 C51.06,43.76 52.66,44.36 54.36,44.96 C53.36,45.46 52.36,46.06 51.46,46.56 C50.56,47.06 49.56,47.76 48.56,48.36 Z M68.56,45.06 C70.26,44.36 71.86,43.86 73.46,43.36 C73.76,44.96 74.16,46.66 74.36,48.46 C73.43,47.83 72.46,47.27 71.46,46.76 C70.46,46.26 69.46,45.56 68.56,45.06 Z M81.36,60.56 C82.73,61.61 84.03,62.75 85.26,63.96 C84.06,65.06 82.76,66.16 81.36,67.36 C81.36,66.26 81.46,65.16 81.46,63.96 C81.46,62.76 81.46,61.76 81.36,60.56 Z M61.46,21.96 C64.26,21.96 68.46,26.96 71.56,36.56 C71.76,37.08 71.5,37.65 70.98,37.85 C70.97,37.85 70.96,37.86 70.96,37.86 C67.96,38.86 64.96,40.06 61.86,41.36 C61.6,41.46 61.32,41.46 61.06,41.36 C58.1,40.01 55.06,38.84 51.96,37.86 C51.44,37.68 51.17,37.1 51.35,36.58 C51.35,36.57 51.36,36.56 51.36,36.56 C54.36,26.96 58.66,21.96 61.46,21.96 Z M25.06,42.96 C26.46,40.56 32.96,39.36 42.76,41.46 C43.3,41.56 43.67,42.08 43.57,42.62 C43.57,42.63 43.57,42.65 43.56,42.66 C42.96,45.66 42.46,48.96 42.06,52.36 C42.03,52.64 41.89,52.89 41.66,53.06 C39.01,54.94 36.47,56.98 34.06,59.16 C33.64,59.51 33.02,59.47 32.66,59.06 C25.86,51.56 23.66,45.36 25.06,42.96 Z M25.06,84.96 C23.66,82.56 25.86,76.36 32.56,68.86 C32.94,68.48 33.53,68.44 33.96,68.76 C36.39,70.92 38.93,72.96 41.56,74.86 C41.79,75.03 41.93,75.28 41.96,75.56 C42.24,78.82 42.74,82.06 43.46,85.26 C43.58,85.8 43.24,86.33 42.7,86.45 C42.69,86.45 42.67,86.46 42.66,86.46 C32.96,88.56 26.46,87.36 25.06,84.96 Z M61.46,105.96 C58.66,105.96 54.46,100.96 51.36,91.36 C51.16,90.84 51.42,90.27 51.94,90.07 C51.95,90.07 51.96,90.06 51.96,90.06 C55.05,89.02 58.09,87.82 61.06,86.46 C61.32,86.36 61.6,86.36 61.86,86.46 C64.96,87.86 68.06,89.06 70.96,90.06 C71.48,90.24 71.75,90.82 71.57,91.34 C71.57,91.35 71.56,91.36 71.56,91.36 C68.46,100.96 64.26,105.96 61.46,105.96 Z M97.86,84.96 C96.46,87.36 89.96,88.56 80.16,86.46 C79.62,86.36 79.25,85.84 79.35,85.3 C79.35,85.29 79.35,85.27 79.36,85.26 C79.96,82.16 80.46,78.96 80.86,75.56 C80.89,75.28 81.03,75.03 81.26,74.86 C83.91,72.98 86.45,70.94 88.86,68.76 C89.28,68.41 89.9,68.45 90.26,68.86 C96.96,76.36 99.16,82.56 97.86,84.96 Z" fill="#FAFAFA"/>
</svg>
